Sources/FrostedUI/Resources/Icons.xcassets/calendarXSize12.imageset/calendar-x-size-12.svg

<svg
  width="12"
  height="12"
  viewBox="0 0 12 12"
  fill="none"
  xmlns="http://www.w3.org/2000/svg"
  data-fui-icon="true"
>
  <path
    d="M3.875 2.375V1.375M8.125 2.375V1.375M4.74901 5L7.24985 7.50085M7.25085 5L4.75 7.50085M2.875 10.125H9.125C9.6773 10.125 10.125 9.6773 10.125 9.125V3.375C10.125 2.82271 9.6773 2.375 9.125 2.375H2.875C2.32271 2.375 1.875 2.82271 1.875 3.375V9.125C1.875 9.6773 2.32271 10.125 2.875 10.125Z"
    stroke="currentColor"
    stroke-width="1.5"
    stroke-linecap="round"
    stroke-linejoin="round"
  />
</svg>

<svg xmlns="http://www.w3.org/2000/svg" width="12" height="12" fill="none" data-fui-icon="true" viewBox="0 0 12 12"><path stroke="currentColor" stroke-linecap="round" stroke-linejoin="round" stroke-width="1.5" d="M3.875 2.375v-1m4.25 1v-1M4.749 5l2.5 2.5M7.252 5 4.75 7.5m-1.875 2.625h6.25a1 1 0 0 0 1-1v-5.75a1 1 0 0 0-1-1h-6.25a1 1 0 0 0-1 1v5.75a1 1 0 0 0 1 1"/></svg>
